src/main/resources/icons/page-js.svg

<?xml version="1.0" encoding="utf-8"?>
<!-- Generator: Adobe Illustrator 27.0.0, SVG Export Plug-In . SVG Version: 6.00 Build 0)  -->
<svg version="1.1" id="Layer_1" xmlns="http://www.w3.org/2000/svg" xmlns:xlink="http://www.w3.org/1999/xlink" x="0px" y="0px"
	 viewBox="0 0 98.1 118" style="enable-background:new 0 0 98.1 118;" xml:space="preserve">
<style type="text/css">
	.st0{fill:#F7DF1E;}
	.st1{fill:#F8E58F;}
	.st2{display:none;fill:#EBEBEB;}
	.st3{display:none;fill:#FFFFFF;}
	.st4{fill:#333333;}
</style>
<path class="st0" d="M10.1,102.1l-8.6-97h95l-8.6,97l-39,10.8"/>
<path class="st1" d="M50,104.6V13.1h38.8l-7.4,82.8"/>
<path class="st2" d="M48,33.8l-17.6-0.1c-9.7,0-17.6,0-17.7,0.1c-0.1,1.4-0.1,2.9-0.1,4.3v4.2h13.1v38.9H35V42.3h13.1l0-4.3L48,33.8
	z"/>
<path class="st3" d="M81.2,60.5c-1.9-3-5-5.2-12.2-8.4c-3.9-1.8-5.2-2.6-5.8-4.1c-0.3-0.6-0.5-1.3-0.4-2c0-2.8,1.9-4.5,5-4.2
	c2,0.1,3.7,1.2,4.7,3c0.4,0.7,0.8,1.1,0.9,1c2.7-1.7,7-4.8,7-4.9c-0.7-1.2-1.5-2.4-2.4-3.4c-1.7-1.9-3.9-3.2-6.3-3.8
	c-2.5-0.5-5.1-0.6-7.6-0.2c-5.1,0.7-9.2,4.7-10.3,10c-0.3,2.2-0.2,4.5,0.2,6.7c0.5,1.9,1.5,3.7,2.8,5.3c2.7,2.7,5.9,4.8,9.5,6.1
	c4.5,2.1,6.1,3,6.9,4.2c1.2,1.8,1,4.3-0.6,5.8c-2.9,2.1-6.7,2.3-9.8,0.5c-1.5-1-2.8-2.3-3.8-3.8l-0.6-0.9L55.4,69
	c-1.6,1-3.3,2-3.7,2.3c-0.3,0.2-0.6,0.4-0.9,0.6c0.7,1.5,1.6,2.8,2.6,4.1c2.8,3,6.3,4.9,10.2,5.6c2.5,0.4,5.1,0.4,7.7,0.1
	c4.9-0.5,9.1-3.6,11.1-8.3C83.8,69.1,83.4,64.4,81.2,60.5z"/>
<path class="st4" d="M70.5,52.7L68,51.7c-4.2-1.9-6-3.1-6-6.1c0-2.4,1.8-4.3,4.7-4.3c2.8,0,4.6,1.2,6.3,4.3l7.6-5
	c-3.2-5.8-7.7-8-13.9-8c-8.8,0-14.4,5.7-14.4,13.2c0,8.1,4.7,12,11.8,15l2.4,1.1c4.5,2,7.1,3.2,7.1,6.6c0,2.8-2.6,4.9-6.6,4.9
	c-4.8,0-7.6-2.6-9.7-6.1l-8,4.7l0,0c2.9,5.8,8.7,10.2,17.8,10.2c9.3,0,16.2-4.9,16.2-13.9C83.5,60.1,78.8,56.4,70.5,52.7z"/>
<path d="M34.3,67.1c0,5-2,6.3-5.3,6.3c-3.4,0-4.8-2.3-6.3-5.1l-8,4.9l0,0c2.3,5,6.9,9.1,14.7,9.1c8.7,0,14.6-4.7,14.6-15v-34h-9.8
	V67.1z"/>
</svg>

<?xml version="1.0" encoding="UTF-8" standalone="no"?>
<!DOCTYPE svg PUBLIC "-//W3C//DTD SVG 1.1//EN" "http://www.w3.org/Graphics/SVG/1.1/DTD/svg11.dtd">
<svg width="100%" height="100%" viewBox="0 0 99 118" version="1.1" xmlns="http://www.w3.org/2000/svg" xmlns:xlink="http://www.w3.org/1999/xlink" xml:space="preserve" xmlns:serif="http://www.serif.com/" style="fill-rule:evenodd;clip-rule:evenodd;stroke-linejoin:round;stroke-miterlimit:2;">
    <path d="M10.1,102.1L1.5,5.1L96.5,5.1L87.9,102.1L48.9,112.9" style="fill:rgb(247,223,30);fill-rule:nonzero;"/>
    <path d="M70.5,52.7L68,51.7C63.8,49.8 62,48.6 62,45.6C62,43.2 63.8,41.3 66.7,41.3C69.5,41.3 71.3,42.5 73,45.6L80.6,40.6C77.4,34.8 72.9,32.6 66.7,32.6C57.9,32.6 52.3,38.3 52.3,45.8C52.3,53.9 57,57.8 64.1,60.8L66.5,61.9C71,63.9 73.6,65.1 73.6,68.5C73.6,71.3 71,73.4 67,73.4C62.2,73.4 59.4,70.8 57.3,67.3L49.3,72C52.2,77.8 58,82.2 67.1,82.2C76.4,82.2 83.3,77.3 83.3,68.3C83.5,60.1 78.8,56.4 70.5,52.7Z" style="fill-rule:nonzero;"/>
    <path d="M34.3,67.1C34.3,72.1 32.3,73.4 29,73.4C25.6,73.4 24.2,71.1 22.7,68.3L14.7,73.2C17,78.2 21.6,82.3 29.4,82.3C38.1,82.3 44,77.6 44,67.3L44,33.3L34.2,33.3L34.2,67.1L34.3,67.1Z" style="fill-rule:nonzero;"/>
</svg>
